icons4/libreddit.svg

<svg width="256" height="256" viewBox="0 0 256 256" fill="none" xmlns="http://www.w3.org/2000/svg">
<g clip-path="url(#clip0_1977_10394)">
<path d="M256 0H0V256H256V0Z" fill="url(#paint0_linear_1977_10394)"/>
<g clip-path="url(#clip1_1977_10394)">
<path fill-rule="evenodd" clip-rule="evenodd" d="M72.8717 47.319C72.3584 47.8866 72.2016 207.704 72.713 208.66C73.0419 209.274 182.632 209.46 183.245 208.848C183.701 208.392 183.688 172.666 183.232 172.37C183.056 172.257 166.15 172.106 145.664 172.035L108.416 171.907L108.351 109.847C108.292 52.5439 108.255 47.7503 107.864 47.319C107.206 46.5913 73.5296 46.5919 72.8717 47.319Z" fill="#FCFCFC"/>
<path fill-rule="evenodd" clip-rule="evenodd" d="M121.097 48.8762C120.548 49.9028 120.748 158.561 121.3 159.061C121.94 159.64 152.831 159.719 153.309 159.142C153.514 158.896 153.612 148.046 153.661 120.338C153.727 82.6004 153.738 81.8688 154.225 81.5124C154.64 81.209 157.05 81.1488 168.829 81.1488C179.461 81.1488 183.013 81.0733 183.245 80.8416C183.688 80.3981 183.688 49.1316 183.245 48.688C182.634 48.0775 121.425 48.2624 121.097 48.8762Z" fill="#04FCFC"/>
<path fill-rule="evenodd" clip-rule="evenodd" d="M0 128V256H128H256V128V0H128H0V128ZM107.864 47.3158C108.255 47.7472 108.292 52.5408 108.351 109.844L108.416 171.904L145.664 172.032C166.15 172.102 183.056 172.253 183.232 172.367C183.688 172.662 183.701 208.388 183.245 208.845C182.632 209.457 73.0419 209.271 72.713 208.657C72.2016 207.7 72.3584 47.8835 72.8717 47.3158C73.5296 46.5888 107.206 46.5882 107.864 47.3158ZM183.245 48.6912C183.688 49.1347 183.688 80.4013 183.245 80.8448C183.013 81.0765 179.461 81.152 168.829 81.152C157.05 81.152 154.64 81.2122 154.225 81.5155C153.738 81.872 153.727 82.6035 153.661 120.341C153.612 148.049 153.514 158.899 153.309 159.146C152.831 159.722 121.94 159.644 121.3 159.064C120.748 158.564 120.548 49.9059 121.097 48.8794C121.425 48.2656 182.634 48.0806 183.245 48.6912Z" fill="#1C1C1C"/>
</g>
</g>
<defs>
<linearGradient id="paint0_linear_1977_10394" x1="128" y1="0" x2="128" y2="256" gradientUnits="userSpaceOnUse">
<stop stop-color="#494A49"/>
<stop offset="0.432292" stop-color="#989898"/>
<stop offset="0.526042" stop-color="#A8A9A8"/>
<stop offset="0.776042" stop-color="#828382"/>
<stop offset="1" stop-color="#505150"/>
</linearGradient>
<clipPath id="clip0_1977_10394">
<rect width="256" height="256" fill="white"/>
</clipPath>
<clipPath id="clip1_1977_10394">
<rect width="256" height="256" fill="white"/>
</clipPath>
</defs>
</svg>

<svg xmlns="http://www.w3.org/2000/svg" width="256" height="256" fill="none"><g clip-path="url(#a)"><path fill="url(#b)" d="M256 0H0v256h256z"/><g fill-rule="evenodd" clip-path="url(#c)" clip-rule="evenodd"><path fill="#FCFCFC" d="M72.872 47.319c-.514.568-.67 160.385-.159 161.341.329.614 109.919.8 110.532.188.456-.456.443-36.182-.013-36.478-.176-.113-17.082-.264-37.568-.335l-37.248-.128-.065-62.06c-.059-57.303-.096-62.097-.487-62.528-.658-.728-34.334-.727-34.992 0"/><path fill="#04FCFC" d="M121.097 48.876c-.549 1.027-.349 109.685.203 110.185.64.579 31.531.658 32.009.081.205-.246.303-11.096.352-38.804.066-37.738.077-38.47.564-38.826.415-.303 2.825-.363 14.604-.363 10.632 0 14.184-.076 14.416-.307.443-.444.443-31.71 0-32.154-.611-.61-61.82-.426-62.148.188"/><path fill="#1C1C1C" d="M0 128v128h256V0H0zm107.864-80.684c.391.431.428 5.225.487 62.528l.065 62.06 37.248.128c20.486.07 37.392.221 37.568.335.456.295.469 36.021.013 36.478-.613.612-110.203.426-110.532-.188-.511-.957-.355-160.773.159-161.341.658-.727 34.334-.728 34.992 0m75.381 1.375c.443.444.443 31.71 0 32.154-.232.231-3.784.307-14.416.307-11.779 0-14.189.06-14.604.364-.487.356-.498 1.087-.564 38.825-.049 27.708-.147 38.558-.352 38.805-.478.576-31.369.498-32.009-.082-.552-.5-.752-109.158-.203-110.185.328-.613 61.537-.798 62.148-.188"/></g></g><defs><clipPath id="a"><path fill="#fff" d="M0 0h256v256H0z"/></clipPath><clipPath id="c"><path fill="#fff" d="M0 0h256v256H0z"/></clipPath><linearGradient id="b" x1="128" x2="128" y1="0" y2="256" gradientUnits="userSpaceOnUse"><stop stop-color="#494A49"/><stop offset=".432" stop-color="#989898"/><stop offset=".526" stop-color="#A8A9A8"/><stop offset=".776" stop-color="#828382"/><stop offset="1" stop-color="#505150"/></linearGradient></defs></svg>
